X:336
T: Nelly O'Neale
N: O'Farrell's Pocket Companion v.4 (Sky ed. p.147)
N: "Irish"
M: 3/4
L: 1/8
Q: 200
R: waltz
K: Gdor
FG/A/| B3 dcB| A4 F>G| A2 f>dc>A| G4 FD|
D2B2A2| G4 F<D| D6-|D4 :|
AG| A2c2 de|f4a2| g2f2e>c|d4 A>G|
A2c2 de|f4 ed/c/| d6-|d4 FG/A/| B3 dcB| A3 GFG|
A2 fdcA| G4 FD|D2d2 (3cAG| F3 AGF| D6-|D4 :|
